X: 19001
T: Inside-Oot Fish Eater, The
R: reel
M: 4/4
K: Dmajor
(3dcB|A3F DFAF|BAGB AGFE|FD D2 DEFD|EAAE AAEA|
F3A DFAF|BAGB AGFE|FD D2 DEFD|dBAF D2:|
|:(3ABc|d3e fedf|g2fg edce|d3e fedf|eAAe AAeA|
d3e fedf|g2fg edce|defd edce|dBAF D2:|

